X: 8168
T: Coolderry Bridge
R: reel
M: 4/4
K: Dmajor
FE|:DA,A,2 DEFB|BAFA dcdf|feef eBBA|G2FG EGFE|
DA,A,2 DEFB|BAFA dcdB|AFdF AFBF|1 AFEG FDDE:|2 AFEG FDDg||
fddA (3Bcd Ad|(3Bcd ef afgf|feef eBBA|G2FG Eage|
fdd2 Add2|gfed BdAB|AFdF AFBF|AFEG FDDg|
fddA (3Bcd Ad|(3Bcd ef afgf|feef eBBA|G2FG E2 FE|
DA,A,2 DEFA|BAFA dcdB|AFdF AFBF|AFEG FDD2||

